X:5615
T:Rolling in the barrel
O:england
M:4/4
L:1/8
R:reel
N:played in B flat on album, on tuned-down fiddle
D:The Smoky Chimney
K:Ddor
D2 ED ADED|A2 GE CEGE|D2 ED ADED|A2 GE ED D2:|
|:d2 ed aded|c3 e g3 e|d3 ed aded|cAGc EDDA|
d2 ed aded|cBce g3 e|defe d2 cB|cAGc ED D2:|


